X: 9
T: POLKA
M: 4/4
L: 1/8
Q:1/4=120
K:G
|:G/2A/2B/2c/2dd BBG3/2 z/2 |G/2A/2B/2c/2dd cBcA|F/2G/2A/2B/2cc AAF3/2 z
/2 |F/2G/2A/2B/2cc BABG:|
BAGd edcc/2c/2|cBAd edBB/2B/2|BAGd edcc/2c/2|cBAd edBG|
AFGd edcc/2c/2|cBAd edBB/2B/2|BAGd edcc/2c/2|cBAd edBG|
AFGd|
